shelter/assets/icons/icon-email.svg

<svg width="40" height="32" viewBox="0 0 40 32" fill="none" xmlns="http://www.w3.org/2000/svg">
<path d="M39.315 3H0.684964C0.5033 3 0.329077 3.07325 0.200621 3.20362C0.0721657 3.334 0 3.51084 0 3.69522V28.3048C0 28.4892 0.0721657 28.666 0.200621 28.7964C0.329077 28.9268 0.5033 29 0.684964 29H39.315C39.4967 29 39.6709 28.9268 39.7994 28.7964C39.9278 28.666 40 28.4892 40 28.3048V3.69522C40 3.51084 39.9278 3.334 39.7994 3.20362C39.6709 3.07325 39.4967 3 39.315 3ZM32.5774 18.0331C32.6846 18.5259 32.7954 19.0355 32.6513 19.2882C32.4966 19.5596 31.9966 19.7173 31.5131 19.8699C31.1316 19.9902 30.7373 20.1147 30.3857 20.3212C30.0461 20.5206 29.7523 20.8001 29.4683 21.0704C29.0772 21.4426 28.7079 21.794 28.374 21.794C28.04 21.794 27.6706 21.4425 27.2797 21.0704C26.9956 20.8001 26.7018 20.5205 26.3622 20.3212C26.0107 20.1147 25.6163 19.9903 25.2348 19.8699C24.7513 19.7173 24.2513 19.5596 24.0967 19.2882C23.9526 19.0355 24.0633 18.5259 24.1705 18.0331C24.2584 17.6285 24.3493 17.2103 24.3493 16.7821C24.3493 16.354 24.2584 15.9356 24.1705 15.5311C24.0633 15.0383 23.9526 14.5288 24.0967 14.2759C24.2513 14.0046 24.7513 13.8468 25.2348 13.6942C25.6163 13.5739 26.0107 13.4494 26.3622 13.243C26.7018 13.0435 26.9956 12.764 27.2797 12.4937C27.6706 12.1216 28.04 11.7701 28.374 11.7701C28.7079 11.7701 29.0773 12.1216 29.4683 12.4937C29.7523 12.764 30.0461 13.0435 30.3857 13.243C30.7373 13.4493 31.1316 13.5738 31.5131 13.6941C31.9966 13.8467 32.4966 14.0045 32.6512 14.2758C32.7954 14.5286 32.6846 15.0381 32.5774 15.5309C32.4895 15.9354 32.3986 16.3537 32.3986 16.7819C32.3986 17.2102 32.4895 17.6286 32.5774 18.0331ZM30.5975 11.6608C30.5345 11.6024 30.4705 11.5416 30.4053 11.4795C29.8904 10.9896 29.2497 10.3798 28.374 10.3798C27.4982 10.3798 26.8575 10.9896 26.3426 11.4795C26.1045 11.7061 25.8796 11.9201 25.6761 12.0396C25.4574 12.168 25.1518 12.2645 24.8281 12.3666C24.1276 12.5876 23.3336 12.8381 22.9109 13.5797C22.5001 14.3004 22.6768 15.1134 22.8328 15.8307C22.9081 16.1777 22.9794 16.5055 22.9794 16.7821C22.9794 17.0587 22.9081 17.3866 22.8328 17.7336C22.6975 18.3556 22.5473 19.0496 22.7775 19.693L19.9997 22.5464L2.32449 4.39044H37.6748L30.5975 11.6608ZM11.7007 16L1.36993 26.6116V5.38812L11.7007 16ZM12.6635 16.989L19.5124 24.0242C19.5761 24.0896 19.6519 24.1416 19.7356 24.177C19.8192 24.2125 19.9089 24.2308 19.9996 24.2308C20.0902 24.2308 20.18 24.2125 20.2636 24.177C20.3472 24.1416 20.4231 24.0896 20.4868 24.0242L23.6841 20.7398C24.044 20.9494 24.4495 21.0781 24.8281 21.1976C25.1518 21.2997 25.4575 21.3962 25.6761 21.5245C25.8796 21.644 26.1044 21.8581 26.3426 22.0846C26.8575 22.5746 27.4982 23.1844 28.374 23.1844C29.2496 23.1844 29.8904 22.5746 30.4053 22.0846C30.6434 21.858 30.8682 21.644 31.0718 21.5244C31.2043 21.4466 31.3691 21.3806 31.5502 21.3179L37.675 27.6094H2.32431L12.6635 16.989ZM32.9664 20.7946C33.3117 20.6108 33.6223 20.3612 33.8371 19.9846C34.2479 19.2639 34.0711 18.4508 33.9151 17.7336C33.8398 17.3866 33.7686 17.0587 33.7686 16.7821C33.7686 16.5055 33.8398 16.1777 33.9151 15.8307C34.0711 15.1134 34.2479 14.3005 33.837 13.5797C33.4142 12.8381 32.6203 12.5876 31.9197 12.3666L31.8559 12.3463L38.6301 5.38738V26.6122L32.9664 20.7946Z" fill="#F1CDB3"/>
<path d="M28.374 13.2424C26.451 13.2424 24.8865 14.8302 24.8865 16.782C24.8865 18.7337 26.451 20.3215 28.374 20.3215C30.297 20.3215 31.8614 18.7337 31.8614 16.782C31.8614 14.8302 30.2969 13.2424 28.374 13.2424ZM28.374 18.9311C27.2064 18.9311 26.2564 17.967 26.2564 16.782C26.2564 15.5969 27.2063 14.6328 28.374 14.6328C29.5416 14.6328 30.4915 15.5969 30.4915 16.782C30.4915 17.967 29.5415 18.9311 28.374 18.9311Z" fill="#F1CDB3"/>
</svg>

<svg width="40" height="32" fill="none" xmlns="http://www.w3.org/2000/svg"><path d="M39.315 3H.685a.68.68 0 0 0-.484.204.7.7 0 0 0-.201.491v24.61a.7.7 0 0 0 .2.491.68.68 0 0 0 .485.204h38.63a.68.68 0 0 0 .484-.204.7.7 0 0 0 .201-.491V3.695a.7.7 0 0 0-.2-.491.68.68 0 0 0-.485-.204zm-6.738 15.033c.108.493.218 1.002.074 1.255-.154.272-.654.43-1.138.582-.381.12-.776.245-1.127.451-.34.2-.634.48-.918.75-.39.372-.76.723-1.094.723-.334 0-.703-.352-1.094-.724-.284-.27-.578-.55-.918-.749-.351-.206-.746-.33-1.127-.451-.484-.153-.984-.31-1.138-.582-.144-.253-.034-.762.073-1.255.088-.405.18-.823.18-1.25 0-.429-.092-.847-.18-1.252-.107-.493-.217-1.002-.073-1.255.154-.271.654-.43 1.138-.582.381-.12.776-.245 1.127-.451.34-.2.634-.479.918-.75.39-.371.76-.723 1.094-.723.334 0 .703.352 1.094.724.284.27.578.55.918.749.351.206.746.33 1.127.451.484.153.984.31 1.138.582.144.253.034.762-.074 1.255-.087.404-.178.823-.178 1.25 0 .43.09.848.178 1.252zm-1.98-6.372l-.192-.181c-.515-.49-1.155-1.1-2.031-1.1-.876 0-1.516.61-2.031 1.1-.238.226-.463.44-.667.56-.219.128-.524.225-.848.327-.7.22-1.494.471-1.917 1.213-.41.72-.234 1.533-.078 2.25.075.348.146.676.146.952 0 .277-.07.605-.146.952-.135.622-.286 1.316-.055 1.959L20 22.546 2.324 4.39h35.35l-7.076 7.27zM11.701 16L1.37 26.612V5.388L11.7 16zm.963.989l6.848 7.035a.683.683 0 0 0 .752.153.684.684 0 0 0 .223-.153l3.197-3.284c.36.21.765.338 1.144.458.324.102.63.198.848.326.204.12.428.334.667.56.515.49 1.155 1.1 2.031 1.1.876 0 1.516-.61 2.031-1.1.238-.226.463-.44.667-.56a2.73 2.73 0 0 1 .478-.206l6.125 6.291H2.325l10.338-10.62zm20.302 3.806c.346-.184.656-.434.871-.81.41-.721.234-1.534.078-2.251-.075-.347-.146-.675-.146-.952 0-.276.07-.604.146-.951.156-.718.333-1.53-.078-2.251-.423-.742-1.217-.992-1.917-1.213l-.064-.02 6.774-6.96v21.225l-5.664-5.817z" fill="#F1CDB3"/><path d="M28.374 13.242c-1.923 0-3.487 1.588-3.487 3.54s1.564 3.54 3.487 3.54 3.487-1.588 3.487-3.54-1.564-3.54-3.487-3.54zm0 5.69c-1.168 0-2.118-.965-2.118-2.15s.95-2.15 2.118-2.15 2.117.965 2.117 2.15-.95 2.15-2.117 2.15z" fill="#F1CDB3"/></svg>
